public/img/Fichier 2.svg

<?xml version="1.0" encoding="UTF-8" standalone="no"?>
<svg
   xmlns:dc="http://purl.org/dc/elements/1.1/"
   xmlns:cc="http://creativecommons.org/ns#"
   xmlns:rdf="http://www.w3.org/1999/02/22-rdf-syntax-ns#"
   xmlns:svg="http://www.w3.org/2000/svg"
   xmlns="http://www.w3.org/2000/svg"
   xmlns:sodipodi="http://sodipodi.sourceforge.net/DTD/sodipodi-0.dtd"
   xmlns:inkscape="http://www.inkscape.org/namespaces/inkscape"
   viewBox="0 0 200 200"
   id="svg4757"
   version="1.1"
   inkscape:version="0.91 r13725"
   sodipodi:docname="Fichier 2.svg"
   width="200"
   height="200">
  <metadata
     id="metadata4785">
    <rdf:RDF>
      <cc:Work
         rdf:about="">
        <dc:format>image/svg+xml</dc:format>
        <dc:type
           rdf:resource="http://purl.org/dc/dcmitype/StillImage" />
        <dc:title>Fichier 2</dc:title>
      </cc:Work>
    </rdf:RDF>
  </metadata>
  <sodipodi:namedview
     pagecolor="#ffffff"
     bordercolor="#666666"
     borderopacity="1"
     objecttolerance="10"
     gridtolerance="10"
     guidetolerance="10"
     inkscape:pageopacity="0"
     inkscape:pageshadow="2"
     inkscape:window-width="1600"
     inkscape:window-height="836"
     id="namedview4783"
     showgrid="false"
     inkscape:zoom="1.6054422"
     inkscape:cx="160.18998"
     inkscape:cy="105.83391"
     inkscape:window-x="0"
     inkscape:window-y="24"
     inkscape:window-maximized="1"
     inkscape:current-layer="svg4757" />
  <defs
     id="defs4759">
    <style
       id="style4761">.cls-1{fill:#00c0a5;}.cls-2{fill:#fff;}</style>
  </defs>
  <title
     id="title4763">Fichier 2</title>
  <g
     id="Calque_2"
     data-name="Calque 2"
     transform="matrix(0.80494321,0,0,0.80892322,-19.865884,-20.237849)">
    <g
       id="Calque_1-2"
       data-name="Calque 1">
      <g
         id="Personne" />
      <g
         id="Personne-2"
         data-name="Personne" />
      <g
         id="g4791">
        <circle
           id="circle4770"
           r="22.440001"
           cy="117.16"
           cx="80.019997"
           class="cls-2"
           style="fill:#ffffff" />
        <path
           id="path4772"
           d="m 121.37,177.27 0,20.68 -82.71,0 0,-20.68 a 58.43,58.43 0 0 1 82.71,0 z"
           class="cls-2"
           style="fill:#ffffff"
           inkscape:connector-curvature="0" />
        <circle
           id="circle4775"
           r="22.440001"
           cy="117.16"
           cx="217.64"
           class="cls-2"
           style="fill:#ffffff" />
        <path
           id="path4777"
           d="m 259,177.27 0,20.68 -82.71,0 0,-20.68 a 58.43,58.43 0 0 1 82.71,0 z"
           class="cls-2"
           style="fill:#ffffff"
           inkscape:connector-curvature="0" />
        <path
           id="path4779"
           d="M 92.85,88.51 C 87.61,83 82.51,77.67 77.59,72.42 96.5,50 143.47,32.3 189.69,60.6 l 10.69,-16.85 c 3.75,14.81 7.45,29.37 11.2,43.37 -14.35,2.71 -29.06,5.51 -44,8.35 l 10.69,-16.85 c -14.47,-9 -29.52,-12.4 -45.63,-10.61 -16.11,1.79 -29.08,9.06 -39.79,20.5 z"
           class="cls-2"
           inkscape:connector-curvature="0"
           style="fill:#ffffff" />
        <path
           id="path4781"
           d="m 196.32,214.14 c 5.23,5.56 10.34,10.84 15.26,16.09 -18.91,22.43 -65.88,40.11 -112.1,11.81 L 88.79,258.9 c -3.75,-14.81 -7.45,-29.37 -11.2,-43.37 14.35,-2.71 29.06,-5.51 44,-8.35 L 110.9,224 c 14.47,9 29.52,12.4 45.63,10.61 16.11,-1.79 29.08,-9.03 39.79,-20.47 z"
           class="cls-2"
           inkscape:connector-curvature="0"
           style="fill:#ffffff" />
      </g>
    </g>
  </g>
</svg>

<svg xmlns="http://www.w3.org/2000/svg" viewBox="0 0 294 294"><defs><style>.cls-1{fill:#00c0a5;}.cls-2{fill:#fff;}</style></defs><title>Fichier 2</title><g id="Calque_2" data-name="Calque 2"><g id="Calque_1-2" data-name="Calque 1"><rect class="cls-1" width="294" height="294" rx="39" ry="39"/><g id="Personne"><circle class="cls-2" cx="80.02" cy="117.16" r="22.44"/><path class="cls-2" d="M121.37,177.27v20.68H38.66V177.27A58.43,58.43,0,0,1,121.37,177.27Z"/></g><g id="Personne-2" data-name="Personne"><circle class="cls-2" cx="217.64" cy="117.16" r="22.44"/><path class="cls-2" d="M259,177.27v20.68H176.29V177.27A58.43,58.43,0,0,1,259,177.27Z"/></g><path class="cls-2" d="M92.85,88.51C87.61,83,82.51,77.67,77.59,72.42,96.5,50,143.47,32.3,189.69,60.6l10.69-16.85c3.75,14.81,7.45,29.37,11.2,43.37-14.35,2.71-29.06,5.51-44,8.35l10.69-16.85c-14.47-9-29.52-12.4-45.63-10.61S103.56,77.07,92.85,88.51Z"/><path class="cls-2" d="M196.32,214.14c5.23,5.56,10.34,10.84,15.26,16.09-18.91,22.43-65.88,40.11-112.1,11.81L88.79,258.9c-3.75-14.81-7.45-29.37-11.2-43.37,14.35-2.71,29.06-5.51,44-8.35L110.9,224c14.47,9,29.52,12.4,45.63,10.61S185.61,225.58,196.32,214.14Z"/></g></g></svg>
